X:1
T:Babylon
T:E minor            Asahel Benham, 1785
T:Transcribed from Benham's Federal Harmony, 1790.
T:Joel Barlow, 1785 (Psalm 137)                      10 10. 10 10.
%%score [ 1 2 3 4 ]
L:1/8
Q:1/4=100
M:4/4
K:G
V:1 treble nm="Tr." snm="Tr."
V:2 treble nm="C." snm="C."
V:3 treble-8 nm="T." snm="T."
V:4 bass nm="B." snm="B."
V:1
"_1. A  –  long   the  banks  where   Ba–bel's  cur – rent   flows, _____________________ Our captive bands in deep despondence strayed;  While Zi–on's  fall    in  sad  re–\n2. The   tune –less  harp    that    once with  joy   we    strung,  ___________________ When praise employed and mirth inspired the lay,  In  mournful  si –lence  on  the" B8 | %1
 B4 d4 | d4 (B2 A2) | B2 B2 B2 B2 | (BAGA B3 G | d8) | d4 c4 | A4 B2 cA | B2 B2 B2 d2 | d8 | %10
 e4 B2 d2 | G8 | F4 B2 B2 | %13
"_1. –mem–brance rose,  Her friends, her children, mingled with ____  the   dead.            Her   friends,     her   chil     –     dren,    min         –       gled      with        the   dead.\n2. wil – lows  hung,     And growing grief prolonged the te        –       dious  day.            And  gro     –    wing  grief          pro   –  longed              the        te    –   dious  day." BA G2 A4- | %14
 A8 | B4 A2 A2 | dB G2 c2 A2 | (G>AGA B2) B2 | B8- | B4 A4 | (G3 A B2) d2 | (g3 f e2) f2 | %22
 (d>Bde d2) gd | B6 B2 | B8 |] %25
V:2
 E8 | E4 F4 | G4 (G2 F2) | B2 FD E2 B,2 | (G6 AG | F8) | D4 G4 | D4 (D2 CE) | D2 EF G2 F2 | G8 | %10
 G4 B2 G2 | E8 | [FA]4 G2 G2 | G2 D2 (E4 | A8) | G4 A2 A2 | F2 G2 [EG]2 D2 | [DF]6 [DF]2 | [DF]8- | %19
 [DF]4 F4 | G6 G2 | G6 E2 | A6 F2 | B6 ^D2 | E8 |] %25
V:3
"_1. A  –  long   the  banks  where   Ba–bel's  cur – rent   flows, _____________________ Our captive bands in deep despondence strayed;  While Zi–on's  fall    in  sad  re–\n2. The   tune –less  harp    that    once with  joy   we    strung,  ___________________ When praise employed and mirth inspired the lay,  In  mournful  si –lence  on  the" E8 | %1
 B4 (B3 A) | B4 (E2 F2) | G2 G2 B2 e2 | (d3 B GABG | A8) | B4 e4 | f4 g2 fe | f2 ed e2 f2 | B8 | %10
 c4 B2 B2 | E8 | d4 d2 B2 | %13
"_1. –mem–brance rose,  Her friends, her children, mingled with ____  the   dead.            Her   friends,     her   chil     –     dren,    min         –       gled      with        the   dead.\n2. wil – lows  hung,     And growing grief prolonged the te        –       dious  day.            And  gro     –    wing  grief          pro   –  longed              the        te    –   dious  day." GA B2 (e4 | %14
 [df]8) | [dg]4 [da]2 [df]2 | d2 B2 [ce]2 A2 | (B3 c d2) D2 | (G4 F4- | F4) d4 | (d3 e d2) B2 | %21
 (e3 f g2) B2 | (A>GAB A2) G>A | B6 G2 | [EG]8 |] %25
V:4
 E,8 | E,4 B,,4 | G,4 (G,2 D,2) | B,,2 B,,2 E,2 E,>F, | (G,3 F, E,F,G,E, | D,8) | B,,4 C,4 | %7
 D,4 G,2 A,C | B,2 B,,2 E,2 D,2 | [G,,G,]8 | (C,3 D, E,2) B,,2 | C,8 | D,4 [G,,G,]2 [G,,G,]2 | %13
 [G,,G,]2 B,,2 (C,3 E, | D,8) | [G,,G,]4 [D,D]2 [D,D]2 | D,2 E,2 C,2 D,2 | B,,6 B,,2 | B,,8- | %19
 B,,4 D,4 | [G,,G,]6 [G,,G,]2 | C,6 B,,>C, | D,6 [C,E,]>[A,,F,] | %23
 ([G,,G,]3 [A,,A,] [B,,B,]2) B,,2 | E,8 |] %25

